frontend/web/uploads/luts/rColorBlockinged.cube
#Created by: Easy Digital Negatives
TITLE  "Easy Digital Negatives"
LUT_1D_SIZE 3
DOMAIN_MIN 0.0 0.0 0.0
DOMAIN_MAX 1.0 1.0 1.0
#LUT data points
0.000000 0.000000 0.000000
0.600000 0.000000 0.000000
1.000000 0.901961 0.901961
#END data
